X:1
T:Title
%%score { ( 1 3 ) | ( 2 4 ) }
L:1/8
Q:1/4=100
M:4/4
K:A
V:1 treble nm="Grand Piano"
V:3 treble 
V:2 bass 
V:4 bass 
V:1
 [CE]2 [CA][DB] [Ec]2 [Fd][Ec] | B4 F4 | A2 GA B2 AB | [Ec]6 z2 | [CE]2 [CA][DB] [Ec]2 [Fd][Ec] | %5
w: J.~H.~Kurzenknabe * * * * *|||||
 B4 F4 | E2 GA B2 AG | A6 z2 | d4 z4 | [Ec]4 [EA]4 | B4 z4 | c2 c2 e4 | d4 z4 | [Ec]4 [EA]4 | %14
w: |||||||||
 B4 z4 | [A,A]2- [A,-FA-]2 [A,EA]2 z2 |] %16
w: ||
V:2
 [A,,A,]2 [A,,A,][A,,A,] [A,,A,]2 [A,,A,][A,,A,] | [D,F,D]4 [D,A,D]4 | %2
 [E,A,C]2 [E,B,E][E,CE] [E,DE]2 [E,CE][E,G,E] | [A,,A,]6 z2 | %4
 [A,,A,]2 [A,,A,][A,,A,] [A,,A,]2 [A,,A,][A,,A,] | [D,F,D]4 [D,A,D]4 | %6
 [E,G,D]2 [E,B,D][E,A,C] [E,DE]2 [E,CE][E,B,E] | [A,CE]6 z2 | %8
 [D,D]2 [D,D][D,D] [D,A,D]2 [D,A,][D,A,] | [A,,A,]4 [A,C]4 | %10
 [E,E]2 [E,E][E,E] [E,B,E]2 [E,E][E,E] | [A,EA]2 [A,EA]2 [A,CA]4 | %12
 [D,D]2 [D,D][D,D] [D,A,D]2 [D,A,][D,A,] | [A,,A,]4 [A,C]4 | [E,E]2 [E,E][E,E] [E,B,]2 [E,B,]E, | %15
 z2[K:treble] D2 C2 z2 |] %16
V:3
 x8 | x8 | x8 | x8 | x8 | x8 | x8 | x8 | F2 FF F2 [FA][Fd] | x8 | G2 GG G2 [GB][Gd] | x8 | %12
 F2 FF F2 [FA][Fd] | x8 | G2 GG [Ge]2 [Gd][DEB] | [CE]2 z2 z4 |] %16
V:4
 x8 | x8 | x8 | x8 | x8 | x8 | x8 | x8 | x8 | x8 | x8 | x8 | x8 | x8 | x8 | A,,6[K:treble] z2 |] %16

